X: 16
T: Acemaşîrân Peşrev
C: Neyzen Salih Dede
O: Turkey
F: http://compmusic.upf.edu/node/140
N: acemasiran--pesrev--devrikebir----dede_salih_efendi
N: makam= acemasiran
N: form= pesrev
N: usul= devrikebir = 28/4
M: 28/4
L: 1/16
K: C _B   
Q: 1/4=75
%%MIDI tuningsystem comma53
f6e2 f2z2 g2a2  | g3f e2f2 e4 d4  | z4 e2f2 e4 d4  | \
w:  1. HANE  |   |   | 
e2d2 c2_1/4B2 c4 z4  | 
w:   | 
d2e2 d2c2 d2z2 aga2  | g3f e2f2 e2z2 gfg2  | \
w:   |   | 
f8 c4 f4  | 
w:   | 
f2g2 f2e2 e2f2 e2d2  | e2d2 c2_1/4B2 c4 d4  | \
w:   |   | 
z4 c2d2 c4 B4  | B2A4G2 F2z2 B4  | 
w:   |   | 
z4 c2B2 A4 G2A2  | G3F E2F2 E2z2 G2E2  | \
w:   |   | 
F6g2 f4 g4  | g3f e2f2 e4 f4  | 
w:   |  2. HANE  | 
g4 z4 g2_7/8a2 g2f2  | g2_7/8a_1/4b a2g2 g2f2 f2e2  | \
w:   |   | 
f6_7/8a2 g4 a4  | _7/8a2_1/4b2 a2g2 g2a2 g2f2  | 
w:   |   | 
f2g2 f2e2 e2f2 e2_3/4d2  | _3/4dcde d2c2 c8  | \
w:   |   | 
z4 _1/4B2c2 _3/4d2e2 d2c2  | 
w:   | 
c2_3/4d2 c2_1/4B2 c4 =d4  | z4 c2d2 c4 B4  | \
w:   |   | 
B2A4G2 F2z2 B4  | z4 c2B2 A4 G2A2  | 
w:   |   | 
G3F E2F2 E2z2 G2E2  | F6a2 g4 a4  | g4 a8 g2b2  | \
w:   |   |  3. HANE  | 
a2g2 f2e2 f3e d2^c2  | 
w:   | 
d2z2 c'2_1/4b2 d'4 c'2b2  | c'3_1/4b a8 .a2.a2  | \
w:   |   | 
a2b2 a2g2 g3f e2f2  | e2d2 {e}d2^c2 d8  | 
w:   |   | 
z4 .d2.d2 d2e2 d2^c2  | ^c2d2 c2_7/8B2 BABc B2A2  | \
w:   |   | 
A6c2 _1/4B4 c4  | 
w:   | 
z4 c2d2 c4 B4  | B2A4G2 F2z2 B4  | z4 c2B2 A4 G2A2  | \
w:   |   |   | 
G3F E2F2 E2z2 G2E2  | 
w:   | 
F6b2 a4 b4  | a4 b4 b2c'2 b2a2  | b3a g2a2 g4 f4  | \
w:   |  4. HANE  |   | 
z4 g2a2 g4 f4  | 
w:   | 
g2a2 g2a2 a6z2  | f2g2 a2b2 a4 g2a2  | \
w:   |   | 
g2f2 f2e2 e2d2 d2^c2  | 
w:   | 
d8 z4 f4  | f2g2 f2e2 e2f2 e2d2  | e2d2 c2_1/4B2 c4 d4  | \
w:   |   |   | 
z4 c2d2 c4 B4  | 
w:   | 
B2A4G2 F2z2 B4  | z4 c2B2 A4 G2A2  | \
w:   |   | 
G3F E2F2 E2z2 G2E2  | F6C2 D2E2 F4  | 
w:   |   | 
|


